X: 1
T: the Chipmunk Song    [F]
C: words & music: Ross Bagdasarian 1958
Z: 2018 John Chambers <jc:trillian.mit.edu>
M: 3/4
L: 1/4
K: F
[|\
"F"A,2 C | D2 F | "C7"E2 B, | D3 | E2 B, | D2 F | "F"E2 D | D3 |
w: Christ-mas, Christ-mas time is near, Time for toys and time for cheer.
%
"Gm7"B,2 D | "C7"E2 G | "Gm7"F2 D | "C7"E3 | "Gm7"F2 D | "C7"E2 G | "F"F2 D | D3 ||
w: We've been good but we can't last. Hur-ry Christ-mas, Hur-ry fast!
%
"F"A,2 C | D2 F | E2 C | D3 | C2 D | "F7"F2 A | "Bb"A2 G | G3 |
w: Want a plane that loops the loop. Me, I want a hu-la hoop.
%
"Bb"A2 G | "Bbm"B2 A | "F"G2 F | "Gsus2"A2 E | "Gm"D2 E | "C7"C2 G | "F"F3- | Fzz |]
w: We can hard-ly stand the wait. Please Christ-mas, don't be late._

%%sep 1 1 500

